icon-themes/breeze_svg/cmd/32/changecasetolower.svg

<svg viewBox="0 0 32 32" xmlns="http://www.w3.org/2000/svg"><path d="m17 9v17h1v-2.34375a5.5 5.5 0 0 0 4.5 2.34375 5.5 5.5 0 0 0 5.5-5.5 5.5 5.5 0 0 0 -5.5-5.5 5.5 5.5 0 0 0 -4.5 2.349609v-8.349609zm-7.5 6a5.5 5.5 0 0 0 -5.5 5.5 5.5 5.5 0 0 0 5.5 5.5 5.5 5.5 0 0 0 4.5-2.349609v2.349609h1v-5.5-5.5h-1v2.34375a5.5 5.5 0 0 0 -4.5-2.34375zm0 1a4.5 4.5 0 0 1 4.5 4.5 4.5 4.5 0 0 1 -4.5 4.5 4.5 4.5 0 0 1 -4.5-4.5 4.5 4.5 0 0 1 4.5-4.5zm13 0a4.5 4.5 0 0 1 4.5 4.5 4.5 4.5 0 0 1 -4.5 4.5 4.5 4.5 0 0 1 -4.5-4.5 4.5 4.5 0 0 1 4.5-4.5z" fill="#4d4d4d"/><path d="m18 4 4 5 4-5z" fill="#1d99f3"/></svg>

<svg xmlns="http://www.w3.org/2000/svg" viewBox="0 0 32 32">
 <path 
     style="fill:#4d4d4d" 
     d="M 17 9 L 17 26 L 18 26 L 18 23.65625 A 5.5 5.5 0 0 0 22.5 26 A 5.5 5.5 0 0 0 28 20.5 A 5.5 5.5 0 0 0 22.5 15 A 5.5 5.5 0 0 0 18 17.349609 L 18 9 L 17 9 z M 9.5 15 A 5.5 5.5 0 0 0 4 20.5 A 5.5 5.5 0 0 0 9.5 26 A 5.5 5.5 0 0 0 14 23.650391 L 14 26 L 15 26 L 15 20.5 L 15 15 L 14 15 L 14 17.34375 A 5.5 5.5 0 0 0 9.5 15 z M 9.5 16 A 4.5 4.5 0 0 1 14 20.5 A 4.5 4.5 0 0 1 9.5 25 A 4.5 4.5 0 0 1 5 20.5 A 4.5 4.5 0 0 1 9.5 16 z M 22.5 16 A 4.5 4.5 0 0 1 27 20.5 A 4.5 4.5 0 0 1 22.5 25 A 4.5 4.5 0 0 1 18 20.5 A 4.5 4.5 0 0 1 22.5 16 z "
     />
 <path 
     style="fill:#1d99f3" 
     d="M 18 4 L 22 9 L 26 4 L 18 4 z "
     />
</svg>
